lib/svgs/window-min.svg

<?xml version="1.0" encoding="UTF-8"?>
<svg width="16px" height="16px" viewBox="0 0 16 16" version="1.1" xmlns="http://www.w3.org/2000/svg" xmlns:xlink="http://www.w3.org/1999/xlink">
    <!-- Generator: sketchtool 51.3 (57544) - http://www.bohemiancoding.com/sketch -->
    <title>window-min</title>
    <desc>Created with sketchtool.</desc>
    <defs></defs>
    <g id="Icons" stroke="none" stroke-width="1" fill="none" fill-rule="evenodd">
        <g id="Deprecated" transform="translate(-236.000000, -200.000000)" fill="#000000" fill-rule="nonzero">
            <g id="window-min" transform="translate(236.000000, 200.000000)">
                <path d="M11.4318281,5.4176 L14.8211,5.4176 C15.1524708,5.4176 15.4211,5.68622915 15.4211,6.0176 C15.4211,6.34897085 15.1524708,6.6176 14.8211,6.6176 L9.9891,6.6176 C9.95381324,6.6176 9.91923793,6.61455387 9.8856227,6.60871023 C9.76633088,6.58896677 9.65185658,6.53308472 9.55983593,6.44106407 C9.42291696,6.30414509 9.36600498,6.11751614 9.3891,5.9392721 L9.3891,1.1856 C9.3891,0.85422915 9.65772915,0.5856 9.9891,0.5856 C10.3204708,0.5856 10.5891,0.85422915 10.5891,1.1856 L10.5891,4.56327186 L14.9768359,0.175535931 C15.2111505,-0.0587786438 15.5910495,-0.0587786438 15.8253641,0.175535931 C16.0596786,0.409850506 16.0596786,0.789749494 15.8253641,1.02406407 L11.4318281,5.4176 Z M4.56747186,10.5813 L1.1897,10.5813 C0.85832915,10.5813 0.5897,10.3126708 0.5897,9.9813 C0.5897,9.64992915 0.85832915,9.3813 1.1897,9.3813 L5.98226598,9.3813 C6.03448896,9.37829027 6.08703037,9.38207439 6.13845266,9.39265237 C6.41393777,9.44698322 6.6217,9.68987888 6.6217,9.9813 L6.6217,14.8133 C6.6217,15.1446708 6.35307085,15.4133 6.0217,15.4133 C5.69032915,15.4133 5.4217,15.1446708 5.4217,14.8133 L5.4217,11.4241281 L1.02426407,15.8215641 C0.789949494,16.0558786 0.410050506,16.0558786 0.175735931,15.8215641 C-0.0585786438,15.5872495 -0.0585786438,15.2073505 0.175735931,14.9730359 L4.56747186,10.5813 Z" id="Combined-Shape"></path>
            </g>
        </g>
    </g>
</svg>

<svg xmlns="http://www.w3.org/2000/svg" viewBox="0 0 16 16">
    <path d="M11.432 5.418h3.39a.6.6 0 0 1 0 1.2H9.988a.604.604 0 0 1-.6-.679V1.186a.6.6 0 1 1 1.2 0v3.377L14.977.176a.6.6 0 0 1 .848.848l-4.393 4.394zM4.567 10.58H1.19a.6.6 0 0 1 0-1.2h4.792a.603.603 0 0 1 .64.6v4.832a.6.6 0 0 1-1.2 0v-3.389l-4.398 4.398a.6.6 0 0 1-.848-.849l4.391-4.392z"/>
</svg>
